X:1
T:Kelly the Boy From Killanne
M:4/4
L:1/8
K:C
 z4 z2 CE| G2 GG c2 cA| G2 EC A,2 CD| E2 FEG-F DB,| C6 CE| G2 GG c2 cA|\
 G2 EC A,2 CD| E2 FDG-F DB,| C6 GG| A2 AA c2 cA| G2 cc G2 GG| A2 AA c2 cA|\
 G6 CE| G2 GG c2 cA| G2 EC A,2 CD| E2 FDG-F D3/2 B,/2| C6 z2|
